X:1
T:La Grand' Amour
T:Philippe de Monte
T:La Grand' Amour
C:Philippe de Monte
%%score [ 1 2 3 4 ]
L:1/8
Q:1/4=200
M:4/2
K:F
V:1 treble nm="Soprano" snm="S"
V:2 treble nm="Alto" snm="A"
V:3 treble-8 nm="Tenor" snm="T"
V:4 bass nm="Bass" snm="B"
V:1
 A16 | c8 =B8 | c4 G4 c4 B4 | A2 G2 F2 E2 D2 E2 F2 G2 | A2 B2 c6 A2 d4- | d2 c2 c8 =B4 | c8 z4 c4 | %7
w: La|grand' a-|mour que mon las|coeur _ _ _ _ _ _ _|_ _ _ _ _|* vous por- *|te, in-|
 B4 A4 G4 F4 | c6 c2 B4 A4 | G8 F4 A4 | G2 F2 F8 E4 | F8 z4 D4 | F12 F4 | D2 E2 F2 G2 A2 B2 c4- | %14
w: ces- sa- ment me|con- seill' et en-|hor- te vous|con- so- ler, _|_ vous|con- so-|ler _ _ _ _ _ _|
 c4 G4 B2 A2 G2 F2 | E4 G4 A4 G4 | F4 E2 D2 E2 F2 G4- | G4 F4 G4 G4 | A4 A4 c6 BA | G8 z4 G4 | %20
w: _ en votr' _ _ _|_ en- nuy ex-|tres- * * * * *|* * me; mais|tout bien veu, _ _|_ mais|
 G4 G4 E8 | z4 G4 A4 A4 | c4 G4 A6 c2 | B2 A2 G4 F4 A4 | B12 A4 | G4 B4 A4 G4 | F4 F4 E4 G4 | %27
w: tout bien veu,|mais tout bien|veu, je trou- ve|que moy mes- me j'ay|bon be-|soing de con- so-|la- ti- on du|
 A4 B4 c6 B2 | A4 G4 F2 E2 D2 E2 | F2 G2 A2 B2 c2 A2 d4- | d2 c2 c8 =B4 | c4 G4 A4 B4 | %32
w: dueil que j'ay de|votr' af- flic- * * *||* * * ti-|on, du dueil que|
 c6 B2 A4 G4 | F2 E2 D2 E2 F2 G2 A2 F2 | G4 F8 E4 | F16 |] %36
w: j'ay de votr' af-|flic- * * * * * * *|* * ti-|on.|
V:2
 F16 | G8 G8 | E4 E4 F4 D4 | F4 C4 F4 D4 | C4 E4 F4 D4 | F4 E4 G8 | E8 z4 C4 | D4 F4 E4 A4- | %8
w: La|grand' a-|mour, la grand' a-|mour, la grand' a-|mour que mon las|coeur vous por-|te, in-|ces- sa- ment me|
 A2 A2 E4 G4 C4 | C8 C4 A,4 | D12 C2 B,2 | C4 C4 D4 B,4 | D4 D4 C8 | z4 C8 F4- | F4 E4 F4 C4 | %15
w: _ con- seill' et en-|hor- te vous|con- * *|* so- ler, vous|con- so- ler,|vous con-|* so- ler en|
 G2 F2 E2 D2 C4 E4 | D4 D4 G2 F2 E2 DC | D2 G,2 C8 B,4 | C4 C8 E4- | E4 E4 G6 FE | D8 z4 C4 | %21
w: votr' _ _ _ _ en-|nuy ex- tres- * * * *||me; mais tout|_ bien veu, _ _|_ mais|
 D4 D4 F2 C2 F4- | F4 E4 F2 F2 E2 C2 | D2 F2 E4 F4 F4 | G12 F4 | E4 F4 F4 E4 | D4 D4 C4 E4- | %27
w: tout bien veu, mais tout|_ bien veu, je trou- ve|que moy mes- me j'ay|bon be-|soing de con- so-|la- ti- on du|
 E4 F4 G4 A4 | A,4 B,4 C4 D4- | D4 E4 F2 G2 A4- | A4 E4 G4 G4 | E4 E8 F4 | G4 A2 G2 F2 E2 D4 | %33
w: _ dueil que j'ay|du dueil que j'ay|_ de votr' _ _|_ af- flic- ti-|on, du dueil|que j'ay _ _ _ _|
 z4 F4 D4 F4 | E4 D2 C2 D4 C4 | C16 |] %36
w: de votr' af-|flic- * * * ti-|on.|
V:3
 c16 | _e8 d8 | c8 z4 G4 | c8 B8 | A4 G4 A4 =B4 | c4 c4 d8 | c4 c4 B4 A4 | G4 F4 c6 B2 | %8
w: La|grand' a-|mour, la|grand' a-|mour que mon las|coeur vous por-|te, in- ces- sa-|ment me con- seill'|
 A4 c4 d2 e2 f4- | f4 e4 f4 F4 | B8 G8 | F8 z4 F4- | F4 B8 A4 | B4 F4 F2 G2 A2 B2 | %14
w: _ _ et en- hor-|* * te vous|con- so-|ler en|_ votr' en-|nuy en votr' _ _ _|
 c4 c4 d2 c2 B2 A2 | G4 c4 A2 B2 c4- | c4 =B4 c8 | z4 c4 d4 d4 | f4 F4 A4 A4 | c8 G4 c4- | %20
w: _ en- nuy _ _ _|_ ex- tres- * *|* * me;|mais tout bien|veu, mais tout bien|veu, mais tout|
 c4 =B4 c2 c2 A2 A2 | G2 F2 B4 c4 z2 F2 | A2 A2 c4 F4 A2 A2 | G2 F2 c4 F4 c4 | _e12 c4 | %25
w: _ bien veu, je trou- ve|que moy mes- me mais|tout bien veu, je trou- ve|que moy mes- me j'ay|bon be-|
 c4 d4 c6 B2 | A4 B4 G4 c4- | c4 d4 e4 f2 c2 | d4 e4 f8 | d4 c8 f4 | e4 d2 c2 d4 d4 | c4 c8 d4 | %32
w: soing de con- so-|la- ti- on du|_ dueil que j'ay du|dueil que j'ay|de votr' af-|flic- * * * ti-|on, du dueil|
 e4 f4 A4 B4 | c4 d8 c4 | c4 A4 B4 G4 | F16 |] %36
w: que j'ay du dueil|que j'ay de|votr' af- flic- ti-|on.|
V:4
 F,16 | C,8 G,8 | C,4 C4 A,4 B,4 | F,4 F,4 B,,2 C,2 D,2 E,2 | F,4 C,4 F,4 G,4 | A,8 G,8 | C,8 z8 | %7
w: La|grand' a-|mour, la grand' a-|mour que mon _ _ _|_ las coeur vous|por- *|te,|
 z8 z4 F,4- | F,2 F,2 A,4 G,4 F,4 | C,8 F,8 | z4 B,,4 B,8- | B,4 A,4 B,4 B,,4 | %12
w: me|_ con- seill' et en-|hor- te|vous con-|* so- ler en|
 B,,2 C,2 D,2 E,2 F,4 F,4 | G,4 A,4 F,6 E,D, | C,8 B,,8 | C,4 C,4 F,4 C,4 | F,4 G,4 C,6 C,2 | %17
w: votr' _ _ _ _ en-|nuy ex- tres- * *||me; vous con- so-|ler en votr' en-|
 G,4 A,4 G,8 | F,8 z8 | C,8 E,4 E,4 | G,4 G,4 A,6 C2 | B,2 A,2 G,4 F,8 | z16 | z8 z4 F,4 | %24
w: nuy ex- tres-|me;|mais tout bien|veu, je trou- ve|que moy mes- me||j'ay|
 _E,12 F,4 | C,4 B,,4 F,4 C,4 | D,4 B,,4 C,8 | z8 z4 F,4- | F,4 G,4 A,4 B,4- | B,4 A,4 F,4 D,4 | %30
w: bon be-|soing de con- so-|la- ti- on|du|_ dueil que j'ay|_ de votr' af-|
 A,4 A,4 G,8 | z16 | z4 F,8 G,4 | A,4 B,8 F,4 | C,4 F,4 B,,4 C,4 | F,,16 |] %36
w: flic- ti- on,||du dueil|que j'ay de|votr' af- flic- ti-|on.|

